X:1
T:Kringpolska
R:Polska
O:Haverö, Medelpad
Z:Håkan Lidén, 2010-12-07
N:Gammelpolska Föllinge
M:3/4
L:1/8
K:D
|: f2 (3def (3def | g2 (3efg (3efg | a2 a>g e>g | (3bgb .a2 g2 | 
f2 (3def (3def | g2 (3efg (3efg | a2 a>g e>g | (3bgb a4 :| [K:Dm]
|: a>e (3gag (3fed | d>^c c>A A>E | F>G A<F E>^C | D>E (3FDF (3ED^C |
D>g (3gag (3fed | d>^c c>A A>E | F>G A<F E>^C | (3DEF D4 :|

